!!!!SEGMENT: pl-sa--l-1636--104_anonim--stabat-mater.krn
!!!cenid: 17xx:811
!!!COM: Anonim
!!!COM-rismID: pe30004985
!!!CDT:
!!!CNT:
!!!OTL: Stabat Mater
!!!PDT:
!!!AGN: Sacred
!!!SMS-siglum: PL-SA
!!!SMS-shelfmark: L 1636
!!!SMS-shelfwork: 104 W
!!!SMS-variant:
!!!SMS-altvar:
!!!NIFC-rismSourceID: 1001087537
!!!NIFC-islandoraID:
!!!URL-pdf-islandora:
!!!URL-scan:
!!!ONB-nifc: 53r, skan 0044, s. 5-6
!!!AIN: 2 empty
!!!key:
**kern	**kern
*part2	*part1
*staff2	*staff1
*Iempty	*Iempty
*I"	*I"
*I'keyb	*I'keyb
*clefF4	*clefC1
*k[b-]	*k[b-]
*g:	*g:
*M2/2	*M2/2
*met(c|)	*met(c|)
=1	=1
*	*^
!	!LO:TX:b:t=Stabat Mater, albo Day nam Chryste	!LO:SIC:o:s:=:v:a;;\right
4G\	4b-/	4g\
8G\L	8b-/L	8g\L
8F\J	8cc/J	8a\J
*	*	*2\right
8BB-/L	4dd/ 4b-/	2f\
8C/	.	.
8D/	4dd/ 4b-/	.
8E/J	.	.
=2	=2	=2
8F\L	4cc/	4a\
8G\	.	.
8A\	8cc/L	4a\
8F#X\J	8dd/J	.
!LO:TX:a:t=P:problem=mixed beam	!	!
8G\L	2b-/ 2g/	2d\
16GG/L	.	.
16AA/J	.	.
8BB-/	.	.
8C/J	.	.
=3	=3	=3
*^	*	*
2D/	2DD/	2a/ 2f#X\	2d/
4F\	2ryy	4cc/	4a\
4E-X\	.	4cc#X/	4g\
*v	*v	*	*
=4	=4	=4
8D/L	8dd/L	8dd\L
8C/J	8ee/J	8cc#X\J
8BB-/L	4ff/	4dd\
16AA/L	.	.
16GG/JJ	.	.
!LO:SIC:o:S:=:v:dziura	!	!
8Ayy\L	4ee/	4cc#X\
8Gyy\	.	.
8F\	4ff/	4dd\
16E\L	.	.
16D\JJ	.	.
=5	=5	=5
*^	*	*
!LO:TX:a:t=P:problem=mixed beam	!	!	!
8G\L	2ryy	4ee/	8dd\L
8E\	.	.	16cc\L
.	.	.	16b-\JJ
8A\	.	4cc#X/	8a\L
8AA/J	.	.	8g\J
2D/	2DD/	2dd/ 2a/	2f#X/
*v	*v	*	*
!!LO:LB:g=original
=6	=6	=6
8BB-/L	4dd/ 4b-/	2f/
8C/	.	.
8D/	4dd/ 4b-/	.
8E/J	.	.
16F\LL	8cc/L	4a\
16G\	.	.
16A\	8dd/J	.
16F#X\JJ	.	.
16G\LL	4b-/	4g\
16F#\	.	.
16E-X\	.	.
16C\JJ	.	.
=7	=7	=7
*^	*	*
*	*	*	*^
2D/	2DD/	2a/	8g\L	4ryy
.	.	.	16f#X\L	.
.	.	.	16e\JJ	.
.	.	.	8d\L	4f#/
.	.	.	8c\J	.
2G/	2D/ 2BB#X/ 2GG/	2g/	2B#X/	2d/
*v	*v	*	*	*
*	*v	*v	*v
==	==
*-	*-
!!!system-decoration: s1,s2
!!!EED: Leszek Kubiak
!!!EEV: 2020-12-09
!!!ENC: Berenika Jozajtis
!!!END: 2020-06-13
!!!YEC: Copyright 2022 Narodowy Instytut Fryderyka Chopina (https://polishscores.org)
!!!YEM: Licence CC BY 4.0 (https://creativecommons.org/licenses/by/4.0)
